icons/1_Primary/GNS3.svg

<svg width="1024" height="1024" fill="none" xmlns="http://www.w3.org/2000/svg"><g clip-path="url(#a)"><path d="M512 1024c282.77 0 512-229.23 512-512S794.77 0 512 0 0 229.23 0 512s229.23 512 512 512Z" fill="#9ABEFF"/><path d="M503.34 224a3.103 3.103 0 0 1 3.12-2h24.64c44.77 3.59 88.54 21.75 121.84 52.07a160.122 160.122 0 0 1 15.28 15.21c1 .84 2.51.53 3.74.84a70.855 70.855 0 0 1 48.95 30.79 62.57 62.57 0 0 1 5 8.4c.77 1.57 1.66 3.09 2.35 4.7a25.51 25.51 0 0 1 1.69 4.12c2.57 5.62 3.23 11.9 3.84 18a67.892 67.892 0 0 1-7.91 34.28 77.734 77.734 0 0 1-8.51 13.2 16.684 16.684 0 0 1-3.37 3.71c-.28 6.94.34 13.92-.5 20.83-.11 3-.59 5.9-.88 8.84-.54 2.24-.15 5.08-2.39 6.48-2.35 1.13-5.09.47-7.58 1-32.45 2.68-64.88 5.46-97.33 8.12-2.59.49-5.39 0-7.76 1.37a6.621 6.621 0 0 0-2.93 3.24c.06 1.74-.43 3.79.78 5.27 1 1.16 2.11 2.46 3.69 2.72 50.32 4 100.67 7.79 151 12 1.25.29 3 .16 3.69 1.48.62 2.6.71 6.38-2.31 7.5-50.24 10.16-100.484 20.3-150.73 30.42a46.264 46.264 0 0 1-8.2 1.24c-3.11 0-5.91-1.45-8.75-2.52-6.61-2.55-13.23-5.08-19.82-7.66-5.09-1.92-10.18-3.86-15.23-5.87-8.6-3.29-17.23-6.53-25.76-10-2.58-.88-5.1-1.9-7.62-2.92-2.52-1.02-5.1-1.86-7.59-2.93-5.1-1.89-10.17-3.86-15.22-5.85-1.08-.34-2.2-1.17-3.36-.74-3.14 4.6-6 9.39-9.15 14-6 9.63-12.25 19.17-18.13 28.91-.34.61-.66 1.24-.94 1.89a96.834 96.834 0 0 0 29.8 15.63 57.288 57.288 0 0 0 21.08 2.86 2.401 2.401 0 0 0 1.38-.67c8.15-7.85 18.27-14.12 29.51-16.23a31.71 31.71 0 0 1 23 4.15c5.57 3.31 10.53 8.37 12.13 14.82a9.229 9.229 0 0 1-4.08 9.79c-4.18 2.78-9.18 5.29-14.35 4.35-2.93-.52-4.38-3.36-6.41-5.18-3.33-3.1-8.2-4.82-12.68-3.58-3.24.76-7.05 2.13-8.28 5.55-.69 2.89.78 5.73 1.91 8.32s3.48 4.65 3.42 7.59a9.008 9.008 0 0 1-5.58 7.7c-2.52.87-5.64.54-7.5-1.54-3.18-3.37-4.09-8.11-5.71-12.3a5.148 5.148 0 0 0-5.73-3.95c-15.44 2.13-31.18 0-46.08-4.26-10.83-3.19-21.43-7.68-30.51-14.46a55.22 55.22 0 0 1-15.92-18c-.91-2.25.28-4.57 1.05-6.67a190.949 190.949 0 0 1 12-23.56c1.08-2 2.3-3.95 3.51-5.87a24.651 24.651 0 0 1 1.76-2.91c4.26-7.19 9.49-13.75 14.56-20.38l.46-1.08c-1.07-.36-1.88-1.22-3-1.43l-.09-.4a22.397 22.397 0 0 1-3.6-1.11 17.339 17.339 0 0 0-9.94 1.21c-4.32 2.53-6.75 7-9.7 10.87-1.18 2.27-2.66 4.36-3.9 6.59a14.759 14.759 0 0 0-1.19 1.93c-1.46 3-3.28 5.9-4.6 9l-.36.13c-2.1 5.22-4.8 10.19-6.93 15.41-.51 1.41-1.12 2.78-1.75 4.14-.91 2.8-2.57 5.34-2.9 8.31-1.2 7.44 2.38 14.82 7.34 20.18 5.1 5.57 11.41 9.82 17.56 14.14a109.263 109.263 0 0 0 16.08 9.11c3.12 1.41 4.91 4.45 6.8 7.13 5.63 8.8 8.82 18.92 11 29.08a153.897 153.897 0 0 1 3 23.94c.016 3.262.25 6.519.7 9.75.28 1.29 1.44 3 3 2.35 1.18-.47 1.53-1.78 1.84-2.88A23.662 23.662 0 0 1 486.45 616a15.004 15.004 0 0 1 9.1-1.23c5.18 1 6.91 8.75 2.89 12-2.27 2-5.54 2-8 3.69-3 1.9-5.17 5.4-4.6 9a14.21 14.21 0 0 0 6.93 9.7 12.59 12.59 0 0 0 10.91.39c3.71-1.46 6.78-4.09 9.78-6.64 1.57-1.4 3-3.12 5.16-3.64 3.61-1.28 7.56.69 9.69 3.65 4.58 6.21 6.18 14.88 3.07 22.09-2.95 6.64-9.58 10.77-16.27 12.92a52.727 52.727 0 0 1-29.11-2.1 46.5 46.5 0 0 1-24-20.59c-2.23-3.65-3.46-7.78-5.25-11.64a160.625 160.625 0 0 0-18.82-31.6c-6-7.47-13-14.62-22-18.42a24.68 24.68 0 0 0-12.42-1.86c-2.66.37-5.39 1.83-6.31 4.51a70.224 70.224 0 0 0-2.48 36.77c3 15.66 11.69 29.77 22.81 41 3.54 3.74 7.85 6.62 12 9.6 33 22.4 72.71 35.08 112.66 35.07 29.86 0 59.51-7.14 86.61-19.56 20-9.09 39.27-20.75 54.52-36.79 12-12.67 21-28.45 24.1-45.7 1.9-10.19 2.17-20.93-.9-30.93A36.132 36.132 0 0 0 693 566.58c-7.83-5.42-17.81-7.16-27.13-5.87-12.06 1.07-24 8-29.31 19.12-2.32 6.07-3.56 12.82-2.08 19.24a23.668 23.668 0 0 0 11.13 15.52c5.69 3.91 13 4.91 19.66 3.79a16.198 16.198 0 0 0 12.15-9.49c1.36-3.21 2.49-6.89 1.4-10.35a8.795 8.795 0 0 0-10.62-5.91c-3 1-5.25 3.48-8.29 4.36a7.003 7.003 0 0 1-8.38-4.52c-.64-2.93.5-5.94 2.17-8.32 6.44-7.85 18.64-9.75 27.52-5.14a24.999 24.999 0 0 1 12.94 14.73c2.64 7.71 1.28 16.24-2 23.55a33.341 33.341 0 0 1-18.54 17.75c-8.48 3.34-17.94 2.63-26.64.58-8.29-2.15-16.4-6-22.3-12.34A45.387 45.387 0 0 1 613 596.75c-.52-10.84 1.65-22 7.3-31.36a48.999 48.999 0 0 1 19.78-18.19c17.81-9.28 39.91-10.35 58.21-1.83a60.33 60.33 0 0 1 31.08 33.94c5.55 15.28 5.59 32.09 2.54 47.91-4.49 22.63-14.72 43.87-28.26 62.46-26.55 36.19-64.8 63.16-107 78.1A254.608 254.608 0 0 1 510.59 782a300.246 300.246 0 0 1-56.42-5.87 222.096 222.096 0 0 1-47.06-16.7 246.544 246.544 0 0 1-79.38-60.48 305.529 305.529 0 0 1-20.33-26.57 212.72 212.72 0 0 1-35.78-96.68c-1.19-8.74-1.42-17.56-1.77-26.36a313.153 313.153 0 0 1 3.31-45.64c1.23-7.44 2.33-14.91 4.37-22.18a191.412 191.412 0 0 1 7.82-23.32c.28-.91.55-1.83.8-2.74h.45c.46-2.92 2.43-5.36 3-8.24l.47.07c.62-2.82 2.21-5.38 3.61-7.88l-.16-1h.88c-.09-.29-.28-.85-.38-1.14h.89l-.22-1.13h.61c2.85-6.58 6.67-12.71 10.43-18.81.59-1.65 2-2.76 2.7-4.35a232.345 232.345 0 0 1 17.82-23.81c1.55-2.16 3.52-4 5.23-6 4.58-5.15 9.64-9.87 14.52-14.74 3.09-2.44 5.83-5.29 9-7.65 29.22-24.32 64.66-40.57 101.54-49.26a92.03 92.03 0 0 1 16-2.58c1.89-.06 3.31-1.47 4.71-2.58 4.34-3.48 8.74-6.89 13.09-10.35 2.15-1.88 2.41-4.91 2.76-7.56 3-19.25 6-38.49 8.95-57.73.51-2.22.46-4.56 1.27-6.7m33.92 79.23a67.981 67.981 0 0 0-18.82 5.16 70.003 70.003 0 0 0-5.987 125.697 69.996 69.996 0 0 0 74.075-4.252 69.993 69.993 0 0 0 28.642-68.445c-3.1-20.38-16-38.86-33.78-49.19a69.81 69.81 0 0 0-44.13-9m153.61 19.83c.37 2.76 2.12 5 3.16 7.57 4.62 10.28 9.17 20.72 11.57 31.77 3.41-.89 6.22-3.37 8.54-5.95a19.992 19.992 0 0 0 4.102-8.148c.722-2.996.742-6.118.058-9.122-.74-5.94-4.6-11.2-9.57-14.37-5.28-3.3-11.97-3.55-17.84-1.73l-.02-.02Zm-166.51 15.34a25.529 25.529 0 0 1 16.416 47.894 25.536 25.536 0 0 1-23.586-.474 25.588 25.588 0 0 1-11.37-32.18 25.516 25.516 0 0 1 18.54-15.24Z" fill="#fff"/></g><defs><clipPath id="a"><path fill="#fff" d="M0 0h1024v1024H0z"/></clipPath></defs></svg>

<svg width="1024" height="1024" viewBox="0 0 1024 1024" fill="none" xmlns="http://www.w3.org/2000/svg">
<g clip-path="url(#clip0_2_2301)">
<path d="M512 1024C794.77 1024 1024 794.77 1024 512C1024 229.23 794.77 0 512 0C229.23 0 0 229.23 0 512C0 794.77 229.23 1024 512 1024Z" fill="#9ABEFF"/>
<path d="M503.34 224C503.575 223.375 504.006 222.843 504.568 222.482C505.13 222.122 505.794 221.953 506.46 222H531.1C575.87 225.59 619.64 243.75 652.94 274.07C658.369 278.791 663.474 283.872 668.22 289.28C669.22 290.12 670.73 289.81 671.96 290.12C681.825 291.521 691.284 294.988 699.719 300.293C708.154 305.599 715.375 312.624 720.91 320.91C722.793 323.575 724.465 326.384 725.91 329.31C726.68 330.88 727.57 332.4 728.26 334.01C728.942 335.331 729.508 336.71 729.95 338.13C732.52 343.75 733.18 350.03 733.79 356.13C734.211 368.053 731.483 379.877 725.88 390.41C723.496 395.086 720.645 399.509 717.37 403.61C716.44 405.009 715.304 406.26 714 407.32C713.72 414.26 714.34 421.24 713.5 428.15C713.39 431.15 712.91 434.05 712.62 436.99C712.08 439.23 712.47 442.07 710.23 443.47C707.88 444.6 705.14 443.94 702.65 444.47C670.2 447.15 637.77 449.93 605.32 452.59C602.73 453.08 599.93 452.59 597.56 453.96C596.245 454.677 595.212 455.82 594.63 457.2C594.69 458.94 594.2 460.99 595.41 462.47C596.41 463.63 597.52 464.93 599.1 465.19C649.42 469.19 699.77 472.98 750.1 477.19C751.35 477.48 753.1 477.35 753.79 478.67C754.41 481.27 754.5 485.05 751.48 486.17C701.24 496.33 650.996 506.47 600.75 516.59C598.059 517.248 595.315 517.663 592.55 517.83C589.44 517.83 586.64 516.38 583.8 515.31C577.19 512.76 570.57 510.23 563.98 507.65C558.89 505.73 553.8 503.79 548.75 501.78C540.15 498.49 531.52 495.25 522.99 491.78C520.41 490.9 517.89 489.88 515.37 488.86C512.85 487.84 510.27 487 507.78 485.93C502.68 484.04 497.61 482.07 492.56 480.08C491.48 479.74 490.36 478.91 489.2 479.34C486.06 483.94 483.2 488.73 480.05 493.34C474.05 502.97 467.8 512.51 461.92 522.25C461.58 522.86 461.26 523.49 460.98 524.14C469.925 531.049 480.01 536.339 490.78 539.77C497.566 542.031 504.716 543.001 511.86 542.63C512.381 542.564 512.865 542.328 513.24 541.96C521.39 534.11 531.51 527.84 542.75 525.73C550.665 524.134 558.891 525.619 565.75 529.88C571.32 533.19 576.28 538.25 577.88 544.7C578.289 546.553 578.116 548.488 577.386 550.239C576.656 551.991 575.404 553.476 573.8 554.49C569.62 557.27 564.62 559.78 559.45 558.84C556.52 558.32 555.07 555.48 553.04 553.66C549.71 550.56 544.84 548.84 540.36 550.08C537.12 550.84 533.31 552.21 532.08 555.63C531.39 558.52 532.86 561.36 533.99 563.95C535.12 566.54 537.47 568.6 537.41 571.54C537.291 573.216 536.706 574.826 535.72 576.187C534.733 577.548 533.386 578.605 531.83 579.24C529.31 580.11 526.19 579.78 524.33 577.7C521.15 574.33 520.24 569.59 518.62 565.4C518.332 564.144 517.584 563.042 516.523 562.311C515.462 561.579 514.166 561.272 512.89 561.45C497.45 563.58 481.71 561.45 466.81 557.19C455.98 554 445.38 549.51 436.3 542.73C429.736 537.971 424.301 531.826 420.38 524.73C419.47 522.48 420.66 520.16 421.43 518.06C424.881 509.939 428.89 502.067 433.43 494.5C434.51 492.5 435.73 490.55 436.94 488.63C437.459 487.621 438.047 486.648 438.7 485.72C442.96 478.53 448.19 471.97 453.26 465.34L453.72 464.26C452.65 463.9 451.84 463.04 450.72 462.83L450.63 462.43C449.401 462.162 448.196 461.79 447.03 461.32C443.669 460.737 440.212 461.158 437.09 462.53C432.77 465.06 430.34 469.53 427.39 473.4C426.21 475.67 424.73 477.76 423.49 479.99C423.044 480.602 422.647 481.247 422.3 481.92C420.84 484.92 419.02 487.82 417.7 490.92L417.34 491.05C415.24 496.27 412.54 501.24 410.41 506.46C409.9 507.87 409.29 509.24 408.66 510.6C407.75 513.4 406.09 515.94 405.76 518.91C404.56 526.35 408.14 533.73 413.1 539.09C418.2 544.66 424.51 548.91 430.66 553.23C435.753 556.715 441.132 559.763 446.74 562.34C449.86 563.75 451.65 566.79 453.54 569.47C459.17 578.27 462.36 588.39 464.54 598.55C466.165 606.439 467.168 614.444 467.54 622.49C467.556 625.752 467.79 629.009 468.24 632.24C468.52 633.53 469.68 635.24 471.24 634.59C472.42 634.12 472.77 632.81 473.08 631.71C473.978 628.252 475.648 625.042 477.963 622.322C480.279 619.601 483.18 617.44 486.45 616C489.28 614.649 492.462 614.219 495.55 614.77C500.73 615.77 502.46 623.52 498.44 626.77C496.17 628.77 492.9 628.77 490.44 630.46C487.44 632.36 485.27 635.86 485.84 639.46C486.223 641.482 487.042 643.397 488.238 645.072C489.435 646.747 490.981 648.141 492.77 649.16C494.442 650.04 496.292 650.531 498.18 650.599C500.069 650.666 501.948 650.308 503.68 649.55C507.39 648.09 510.46 645.46 513.46 642.91C515.03 641.51 516.46 639.79 518.62 639.27C522.23 637.99 526.18 639.96 528.31 642.92C532.89 649.13 534.49 657.8 531.38 665.01C528.43 671.65 521.8 675.78 515.11 677.93C505.402 679.983 495.312 679.255 486 675.83C475.84 671.981 467.349 664.696 462 655.24C459.77 651.59 458.54 647.46 456.75 643.6C451.707 632.381 445.393 621.778 437.93 612C431.93 604.53 424.93 597.38 415.93 593.58C412.019 591.899 407.741 591.259 403.51 591.72C400.85 592.09 398.12 593.55 397.2 596.23C393.115 608.047 392.258 620.741 394.72 633C397.72 648.66 406.41 662.77 417.53 674C421.07 677.74 425.38 680.62 429.53 683.6C462.53 706 502.24 718.68 542.19 718.67C572.05 718.67 601.7 711.53 628.8 699.11C648.8 690.02 668.07 678.36 683.32 662.32C695.32 649.65 704.32 633.87 707.42 616.62C709.32 606.43 709.59 595.69 706.52 585.69C704.259 577.996 699.502 571.273 693 566.58C685.17 561.16 675.19 559.42 665.87 560.71C653.81 561.78 641.87 568.71 636.56 579.83C634.24 585.9 633 592.65 634.48 599.07C635.156 602.288 636.494 605.33 638.411 608.002C640.327 610.674 642.779 612.918 645.61 614.59C651.3 618.5 658.61 619.5 665.27 618.38C667.924 617.932 670.425 616.83 672.546 615.173C674.667 613.516 676.342 611.357 677.42 608.89C678.78 605.68 679.91 602 678.82 598.54C678.151 596.377 676.674 594.555 674.696 593.454C672.717 592.353 670.39 592.058 668.2 592.63C665.2 593.63 662.95 596.11 659.91 596.99C658.2 597.432 656.387 597.212 654.833 596.374C653.279 595.536 652.099 594.141 651.53 592.47C650.89 589.54 652.03 586.53 653.7 584.15C660.14 576.3 672.34 574.4 681.22 579.01C684.258 580.466 686.97 582.522 689.194 585.053C691.418 587.585 693.107 590.539 694.16 593.74C696.8 601.45 695.44 609.98 692.16 617.29C690.396 621.327 687.849 624.974 684.667 628.021C681.484 631.068 677.73 633.453 673.62 635.04C665.14 638.38 655.68 637.67 646.98 635.62C638.69 633.47 630.58 629.62 624.68 623.28C617.991 615.951 613.889 606.632 613 596.75C612.48 585.91 614.65 574.75 620.3 565.39C625.069 557.602 631.92 551.302 640.08 547.2C657.89 537.92 679.99 536.85 698.29 545.37C712.727 552.132 723.901 564.334 729.37 579.31C734.92 594.59 734.96 611.4 731.91 627.22C727.42 649.85 717.19 671.09 703.65 689.68C677.1 725.87 638.85 752.84 596.65 767.78C568.995 777.435 539.881 782.246 510.59 782C491.64 781.828 472.749 779.863 454.17 776.13C437.905 772.35 422.119 766.748 407.11 759.43C376.804 744.892 349.79 724.31 327.73 698.95C320.473 690.471 313.686 681.601 307.4 672.38C287.727 643.574 275.439 610.373 271.62 575.7C270.43 566.96 270.2 558.14 269.85 549.34C269.839 534.066 270.945 518.812 273.16 503.7C274.39 496.26 275.49 488.79 277.53 481.52C279.634 473.587 282.246 465.798 285.35 458.2C285.63 457.29 285.9 456.37 286.15 455.46H286.6C287.06 452.54 289.03 450.1 289.6 447.22L290.07 447.29C290.69 444.47 292.28 441.91 293.68 439.41L293.52 438.41H294.4C294.31 438.12 294.12 437.56 294.02 437.27H294.91L294.69 436.14H295.3C298.15 429.56 301.97 423.43 305.73 417.33C306.32 415.68 307.73 414.57 308.43 412.98C313.855 404.671 319.808 396.718 326.25 389.17C327.8 387.01 329.77 385.17 331.48 383.17C336.06 378.02 341.12 373.3 346 368.43C349.09 365.99 351.83 363.14 355 360.78C384.22 336.46 419.66 320.21 456.54 311.52C461.787 310.191 467.141 309.328 472.54 308.94C474.43 308.88 475.85 307.47 477.25 306.36C481.59 302.88 485.99 299.47 490.34 296.01C492.49 294.13 492.75 291.1 493.1 288.45C496.1 269.2 499.1 249.96 502.05 230.72C502.56 228.5 502.51 226.16 503.32 224.02M537.24 303.25C530.751 304.056 524.412 305.794 518.42 308.41C506.368 313.592 496.014 322.056 488.54 332.837C481.066 343.619 476.772 356.284 476.148 369.388C475.524 382.492 478.595 395.507 485.011 406.95C491.426 418.393 500.928 427.803 512.433 434.107C523.938 440.411 536.983 443.355 550.08 442.603C563.177 441.851 575.8 437.434 586.508 429.855C597.216 422.277 605.579 411.842 610.643 399.74C615.707 387.638 617.269 374.356 615.15 361.41C612.05 341.03 599.15 322.55 581.37 312.22C568.058 304.427 552.54 301.262 537.24 303.22M690.85 323.05C691.22 325.81 692.97 328.05 694.01 330.62C698.63 340.9 703.18 351.34 705.58 362.39C708.99 361.5 711.8 359.02 714.12 356.44C716.097 354.076 717.501 351.288 718.222 348.292C718.944 345.296 718.964 342.174 718.28 339.17C717.54 333.23 713.68 327.97 708.71 324.8C703.43 321.5 696.74 321.25 690.87 323.07L690.85 323.05ZM524.34 338.39C528.365 337.573 532.527 337.739 536.474 338.874C540.421 340.009 544.036 342.08 547.012 344.91C549.988 347.74 552.237 351.247 553.568 355.132C554.9 359.017 555.275 363.166 554.661 367.227C554.047 371.287 552.462 375.14 550.042 378.458C547.621 381.775 544.436 384.46 540.756 386.284C537.076 388.108 533.011 389.017 528.905 388.935C524.799 388.852 520.773 387.78 517.17 385.81C511.647 382.785 507.434 377.829 505.337 371.892C503.239 365.955 503.404 359.453 505.8 353.63C507.403 349.764 509.933 346.352 513.166 343.695C516.399 341.037 520.237 339.215 524.34 338.39Z" fill="white"/>
</g>
<defs>
<clipPath id="clip0_2_2301">
<rect width="1024" height="1024" fill="white"/>
</clipPath>
</defs>
</svg>
